X: 1807
T: Sultânîyegâh Seyir
C: Erol Bingöl
O: Turkey
F: http://compmusic.upf.edu/node/140
N: sultaniyegah--seyir--sofyan--1--erol_bingol
N: makam= sultaniyegah
N: form= seyir
N: usul= sofyan = 4/4
M: 4/4
L: 1/16
K: C _B ^c  
Q: 1/4=60
%%MIDI tuningsystem comma53
A4 d4 c2d2 e2f2  | e2d2 c2B2 c3B A4  | \
w:   |   | 
A2B2 c2d2 e2fg f2e2  | 
w:   | 
e2d2 d2c2 d8  | e2f4e2 f4 g4  | a2b2 =c'2ba a8  | \
w:   |   |   | 
g2a2 g2b2 a4 g4  | 
w:   | 
f2e2 e2d2 c2d2 e4  | d2ef e2d2 g2f2 e2d2  | \
w:   |   | 
c2d2 e2d2 c3B A4  | 
w:   | 
z2d2 =c2B2 A2G2 F2E2  | E2FE EDDC D8  | |


